X: 29732
T: Nymph Of The Wave
R: waltz
M: 3/4
K: Dmajor
(DE)|F4D2|d4B2|A4D2|F4 AG|F4A2|E4 GF|E4A2|D4(DE)|
F4D2|d4B2|A4D2|F4AG|F4A2|F4E2|D6|D4:|

